X: 932
M: C
L: 1/8
K: D
V: 1
(B |\
|: (g |\
g>af>g Te>dBg | (f/g/a) A>B d2-d :|
V: 2 clef=bass middle=d
z |\
d2d2 e2e2 | d2d2 d2d2 |\
d2d2 e2e2 | d2A2 D2D :|
|: z |\
d2d2 e2e2 | d2d2 d2d2 |\
d2d2 e2e2 | d2A2 D2D :|

